X:4857
T:Opp?illegible. HSJJ.047
O:england
M:6/8
L:1/8
Q:120
S:HSJ Jackson,Wyresdale,Lancs.1823
R:Jig
A:Lancashire
N:Title is off the edge of my copy.CGP.
H:1823
K:G
B/d/|ege edB|A2AA2B|d>ed dBA|G2GG2f|g>fg efg|aga dga|bag edB|e2AA2:|
|:e/f/|aba aec|aecA2f|g>ag gdB|gdBg2f|g>fg efg|aga dga|bag edB|e2AA2:|]


